X: 13027
T: Finbarr Dwyer's
R: reel
M: 4/4
K: Amixolydian
EA,B,A, EA,B,A,|(3G,G,G, G,A, B,G,B,D|EA,CE ABAG|EB,DB, A,2AG|
EAAG EAGE|DB,ED B,A,B,D|EA,CE ABAG|EB,DB, A,GAG:|
|:EA (3AAA EAAF|~G3B DdBG|EA (3AAA fAeB|AGED B,A,B,D|
EA (3AAA fAeA|EAec d2ed|BccA ^GBBA|^GEDB, A,=GAG:|

